public/img/icons/touch-icon.svg

<svg fill="none" height="64" viewBox="0 0 56 64" width="56" xmlns="http://www.w3.org/2000/svg"><g fill="#000"><path d="m28.4804 25.5407c-3.7108 0-6.7235 3.0162-6.7235 6.7271v5.5362c0 .5139.4253.9357.9392.9357.0709 0 .1454-.0071.2162-.0248 4.6537-1.1129 6.8866-1.1519 11.1079-.0071.0815.0213.163.0319.2445.0319.5175 0 .9393-.4218.9393-.9357v-5.5362c0-3.7109-3.0162-6.7271-6.7236-6.7271zm0 1.8749c2.7008 0 4.8486 2.1479 4.8486 4.8522v4.3347c-3.4202-.801-5.9969-.7656-9.6972.0283v-4.3666c0-2.7007 2.1443-4.8486 4.8486-4.8486zm-4.5048 16.6228h-.0106c-.5139 0-.9357.4253-.9357.9393 0 .5139.4218.9357.9357.9357h.0106 9.0522.0106c.5139 0 .9357-.4218.9357-.9357 0-.514-.4218-.9393-.9357-.9393h-.0106zm0 4.7281-.0106-.0035c-.5139 0-.9392.4253-.9392.9392s.4253.9357.9392.9357h.0106 9.0522.0106c.5139 0 .9392-.4218.9392-.9357s-.4253-.9392-.9392-.9392l-.0106.0035z"/><g clip-rule="evenodd" fill-rule="evenodd"><path d="m52.036 14.7164c.007-.0036.0177-.0036.0283-.0036.5139 0 .9357.4253.9357.9393 0 .2516-.1028.4962-.2835.6734l-5.5185 5.5149c-.1772.1843-.4182.2871-.6734.2871-.514 0-.9357-.4253-.9357-.9392 0-.2517.1028-.4962.2835-.6734l5.5185-5.515c.1701-.1772.4005-.2764.6451-.2835z"/><path d="m28.4875 4.95538h.0141c.514 0 .9357.42177.9357.9357v.01418 7.80454.0106c0 .514-.4217.9393-.9357.9393-.5139 0-.9392-.4253-.9392-.9393v-.0106-7.80454c-.0071-.51393.4111-.94279.9251-.94988z"/><path d="m4.93924 14.7128c.25165 0 .4962.1028.66987.2871l5.51849 5.515c.1807.1772.2835.4217.2835.6734 0 .5139-.4217.9357-.9357.9357-.2552 0-.49616-.1028-.67338-.2836l-5.51848-5.5149c-.18076-.1772-.28354-.4218-.28354-.6734 0-.514.42532-.9393.93924-.9393z"/><path d="m17.2061 48.6247v9.7681.0106c0 .5139-.4218.9392-.9357.9392s-.9392-.4253-.9392-.9392v-.0106-8.8289-1.2369-.0107c0-.5175.4253-.9392.9392-.9392s.9357.4217.9357.9392v.0107z"/><path d="m15.3312 42.9823v-10.3494c0-7.2765 5.8906-13.1671 13.1706-13.1671s13.1671 5.8906 13.1671 13.1671v25.76.0142c0 .5139-.4218.9392-.9357.9392s-.9393-.4253-.9393-.9392v-.0142-25.76c0-6.2734-5.0187-11.2921-11.2921-11.2921-6.277 0-11.2957 5.0187-11.2957 11.2921v11.5296.0674c0 .5139-.4218.9392-.9357.9392s-.9392-.4253-.9392-.9392v-.1879z"/></g></g></svg>

<svg width="56" height="64" viewBox="0 0 56 64" fill="none" xmlns="http://www.w3.org/2000/svg">
<path d="M28.4804 25.5407C24.7696 25.5407 21.7569 28.5569 21.7569 32.2678V37.804C21.7569 38.3179 22.1822 38.7397 22.6961 38.7397C22.767 38.7397 22.8415 38.7326 22.9123 38.7149C27.566 37.602 29.7989 37.563 34.0202 38.7078C34.1017 38.7291 34.1832 38.7397 34.2647 38.7397C34.7822 38.7397 35.204 38.3179 35.204 37.804V32.2678C35.204 28.5569 32.1878 25.5407 28.4804 25.5407ZM28.4804 27.4156C31.1812 27.4156 33.329 29.5635 33.329 32.2678V36.6025C29.9088 35.8015 27.3321 35.8369 23.6318 36.6308V32.2642C23.6318 29.5635 25.7761 27.4156 28.4804 27.4156ZM23.9756 44.0384H23.965C23.4511 44.0384 23.0293 44.4637 23.0293 44.9777C23.0293 45.4916 23.4511 45.9134 23.965 45.9134H23.9756H33.0278H33.0384C33.5523 45.9134 33.9741 45.4916 33.9741 44.9777C33.9741 44.4637 33.5523 44.0384 33.0384 44.0384H33.0278H23.9756ZM23.9756 48.7665L23.965 48.763C23.4511 48.763 23.0258 49.1883 23.0258 49.7022C23.0258 50.2161 23.4511 50.6379 23.965 50.6379H23.9756H33.0278H33.0384C33.5523 50.6379 33.9776 50.2161 33.9776 49.7022C33.9776 49.1883 33.5523 48.763 33.0384 48.763L33.0278 48.7665H23.9756Z" fill="black"/>
<path fill-rule="evenodd" clip-rule="evenodd" d="M52.036 14.7164C52.043 14.7128 52.0537 14.7128 52.0643 14.7128C52.5782 14.7128 53 15.1381 53 15.6521C53 15.9037 52.8972 16.1483 52.7165 16.3255L47.198 21.8404C47.0208 22.0247 46.7798 22.1275 46.5246 22.1275C46.0106 22.1275 45.5889 21.7022 45.5889 21.1883C45.5889 20.9366 45.6917 20.6921 45.8724 20.5149L51.3909 14.9999C51.561 14.8227 51.7914 14.7235 52.036 14.7164Z" fill="black"/>
<path fill-rule="evenodd" clip-rule="evenodd" d="M28.4875 4.95538C28.4875 4.95538 28.4946 4.95538 28.5016 4.95538C29.0156 4.95538 29.4373 5.37715 29.4373 5.89108V5.90526V13.7098V13.7204C29.4373 14.2344 29.0156 14.6597 28.5016 14.6597C27.9877 14.6597 27.5624 14.2344 27.5624 13.7204V13.7098V5.90526C27.5553 5.39133 27.9735 4.96247 28.4875 4.95538Z" fill="black"/>
<path fill-rule="evenodd" clip-rule="evenodd" d="M4.93924 14.7128C5.19089 14.7128 5.43544 14.8156 5.60911 14.9999L11.1276 20.5149C11.3083 20.6921 11.4111 20.9366 11.4111 21.1883C11.4111 21.7022 10.9894 22.124 10.4754 22.124C10.2202 22.124 9.97924 22.0212 9.80202 21.8404L4.28354 16.3255C4.10278 16.1483 4 15.9037 4 15.6521C4 15.1381 4.42532 14.7128 4.93924 14.7128Z" fill="black"/>
<path fill-rule="evenodd" clip-rule="evenodd" d="M17.2061 48.6247V58.3928V58.4034C17.2061 58.9173 16.7843 59.3426 16.2704 59.3426C15.7565 59.3426 15.3312 58.9173 15.3312 58.4034V58.3928V49.5639V48.327V48.3163C15.3312 47.7988 15.7565 47.3771 16.2704 47.3771C16.7843 47.3771 17.2061 47.7988 17.2061 48.3163V48.327V48.6247Z" fill="black"/>
<path fill-rule="evenodd" clip-rule="evenodd" d="M15.3312 42.9823V32.6329C15.3312 25.3564 21.2218 19.4658 28.5018 19.4658C35.7818 19.4658 41.6689 25.3564 41.6689 32.6329V58.3929V58.4071C41.6689 58.921 41.2471 59.3463 40.7332 59.3463C40.2193 59.3463 39.7939 58.921 39.7939 58.4071V58.3929V32.6329C39.7939 26.3595 34.7752 21.3408 28.5018 21.3408C22.2248 21.3408 17.2061 26.3595 17.2061 32.6329V44.1625V44.2299C17.2061 44.7438 16.7843 45.1691 16.2704 45.1691C15.7565 45.1691 15.3312 44.7438 15.3312 44.2299V44.042V42.9823Z" fill="black"/>
</svg>
